X:127
T:Lasses of Stewart Town,The. RH.127
R:Reel
S:Rev.R.Harrison’s MS,c1815,Cumbria
O:England
A:Temple Sowerby,Cumbria
Z:vmp.Simon Wilson. Review PJH, 2008.
M:C
L:1/8
Q:1/2=80
K:G
g|fdec (d/c/B/c/)d2|FDDF A2Ag|\
fdec B>(A/B/4)c2|ECCE G3:|!
|:c|(B/c/d) DF AFDc|(B/c/d) DF A3c|\
(B/c/d) DF(AB) cA|GECE G3:|!
|:c|BGAF BGAF|FDDF A3c|BGAF BGAF|ECCE G3:|!
|:A|defg afdf|gfdf a2{g}f2{e}|\
defg afdf|gece g2f>d|G3:|

